src/img/logo_footer.svg

<svg width="143" height="108" viewBox="0 0 143 108" fill="none" xmlns="http://www.w3.org/2000/svg">
<path d="M4.94118 107.787H0.937175V98.8942H4.94118C5.74356 98.8942 6.41487 98.9772 6.95509 99.1432C7.49531 99.3013 7.92829 99.5582 8.25401 99.9139C8.57973 100.27 8.81012 100.728 8.94518 101.289C9.08818 101.85 9.15968 102.53 9.15968 103.329C9.15968 104.127 9.08818 104.811 8.94518 105.38C8.81012 105.941 8.57973 106.399 8.25401 106.755C7.92829 107.111 7.49531 107.372 6.95509 107.538C6.41487 107.704 5.74356 107.787 4.94118 107.787ZM4.98884 101.171H3.79718V105.51H4.98884C5.38606 105.51 5.66809 105.467 5.83493 105.38C6.0097 105.285 6.09709 105.075 6.09709 104.751V101.929C6.09709 101.605 6.0097 101.4 5.83493 101.313C5.66809 101.218 5.38606 101.171 4.98884 101.171Z" fill="#EDDDD4"/>
<path d="M16.2431 102.368V104.431H13.3831V105.51H16.8866V107.787H10.5231V98.8942H16.8151L16.4576 101.171H13.3831V102.368H16.2431Z" fill="#EDDDD4"/>
<path d="M24.82 98.8942V101.171H22.7465V107.787H19.8865V101.171H17.813V98.8942H24.82Z" fill="#EDDDD4"/>
<path d="M32.2037 104.822L33.7529 107.787H30.6069L29.4391 105.143H28.8194V107.787H25.9594V98.8942H30.4639C32.5135 98.8942 33.5384 99.9337 33.5384 102.012C33.5384 103.435 33.0935 104.372 32.2037 104.822ZM29.4748 101.171H28.8194V102.949H29.4748C29.8244 102.949 30.0746 102.914 30.2255 102.842C30.3844 102.771 30.4639 102.609 30.4639 102.356V101.764C30.4639 101.511 30.3844 101.349 30.2255 101.277C30.0746 101.206 29.8244 101.171 29.4748 101.171Z" fill="#EDDDD4"/>
<path d="M34.6857 103.352C34.6857 102.538 34.7533 101.839 34.8883 101.254C35.0313 100.661 35.2657 100.175 35.5914 99.7953C35.9251 99.4159 36.362 99.1353 36.9022 98.9535C37.4425 98.7717 38.1098 98.6808 38.9042 98.6808C39.7066 98.6808 40.374 98.7717 40.9062 98.9535C41.4465 99.1353 41.8794 99.4159 42.2052 99.7953C42.5388 100.175 42.7732 100.661 42.9082 101.254C43.0512 101.839 43.1227 102.538 43.1227 103.352C43.1227 104.127 43.0592 104.807 42.9321 105.392C42.805 105.969 42.5785 106.451 42.2528 106.838C41.935 107.225 41.5021 107.518 40.9539 107.715C40.4137 107.905 39.7305 108 38.9042 108C38.078 108 37.3908 107.905 36.8427 107.715C36.3024 107.518 35.8695 107.225 35.5437 106.838C35.226 106.451 35.0035 105.969 34.8764 105.392C34.7493 104.807 34.6857 104.127 34.6857 103.352ZM37.7602 101.87V105.569H38.9519C39.3491 105.569 39.6311 105.526 39.798 105.439C39.9728 105.344 40.0602 105.135 40.0602 104.811V101.111H38.8566C38.4752 101.111 38.1972 101.159 38.0224 101.254C37.8476 101.341 37.7602 101.546 37.7602 101.87Z" fill="#EDDDD4"/>
<path d="M47.3396 107.787H44.4796V98.8942H47.3396V107.787Z" fill="#EDDDD4"/>
<path d="M55.4948 98.8942V101.171H53.4212V107.787H50.5612V101.171H48.4877V98.8942H55.4948Z" fill="#EDDDD4"/>
<path d="M60.2068 107.632L60.6119 105.285C61.4858 105.498 62.2763 105.605 62.9833 105.605C63.3408 105.605 63.6547 105.601 63.9248 105.593C64.2028 105.577 64.4491 105.554 64.6636 105.522V104.811L63.3766 104.704C62.7967 104.649 62.312 104.554 61.9228 104.419C61.5335 104.285 61.2197 104.103 60.9813 103.874C60.751 103.637 60.5841 103.356 60.4809 103.032C60.3855 102.7 60.3378 102.313 60.3378 101.87C60.3378 101.262 60.4014 100.756 60.5285 100.353C60.6556 99.9416 60.8582 99.6135 61.1363 99.3685C61.4143 99.1156 61.7718 98.9377 62.2088 98.835C62.6537 98.7322 63.1939 98.6808 63.8294 98.6808C65.0926 98.6808 66.2366 98.7994 67.2614 99.0365L66.9039 101.313C66.0142 101.171 65.3031 101.1 64.7709 101.1C64.2386 101.1 63.7857 101.123 63.4123 101.171V101.87L64.4372 101.965C65.0648 102.028 65.5891 102.135 66.0102 102.285C66.4312 102.427 66.7689 102.617 67.0231 102.854C67.2853 103.091 67.468 103.372 67.5713 103.696C67.6825 104.02 67.7381 104.392 67.7381 104.811C67.7381 105.411 67.6587 105.917 67.4998 106.328C67.3409 106.739 67.1502 107.051 66.9278 107.265C66.745 107.439 66.5186 107.577 66.2485 107.68C65.9784 107.775 65.6924 107.846 65.3905 107.893C65.0886 107.941 64.7828 107.968 64.4729 107.976C64.171 107.992 63.897 108 63.6507 108C63.031 108 62.4352 107.968 61.8632 107.905C61.2912 107.842 60.739 107.751 60.2068 107.632Z" fill="#EDDDD4"/>
<path d="M75.5362 98.8942V101.171H73.4627V107.787H70.6027V101.171H68.5292V98.8942H75.5362Z" fill="#EDDDD4"/>
<path d="M75.9605 98.8942H79.1184L79.9049 102.024H80.0122L80.8106 98.8942H83.9685L81.3945 105.368V107.787H78.5345V105.368L75.9605 98.8942Z" fill="#EDDDD4"/>
<path d="M90.7595 105.51V107.787H85.0395V98.8942H87.8995V105.51H90.7595Z" fill="#EDDDD4"/>
<path d="M97.6223 102.368V104.431H94.7623V105.51H98.2658V107.787H91.9023V98.8942H98.1943L97.8368 101.171H94.7623V102.368H97.6223Z" fill="#EDDDD4"/>
<path d="M108.485 105.641H106.626V107.787H103.766V98.8942H108.27C110.32 98.8942 111.345 99.989 111.345 102.178C111.345 102.661 111.297 103.111 111.202 103.53C111.107 103.949 110.944 104.317 110.713 104.633C110.491 104.941 110.197 105.186 109.831 105.368C109.474 105.55 109.025 105.641 108.485 105.641ZM107.281 101.171H106.626V103.364H107.281C107.631 103.364 107.881 103.329 108.032 103.257C108.191 103.186 108.27 103.02 108.27 102.759V101.764C108.27 101.511 108.191 101.349 108.032 101.277C107.881 101.206 107.631 101.171 107.281 101.171Z" fill="#EDDDD4"/>
<path d="M115.421 107.787H112.561V98.8942H115.421V107.787Z" fill="#EDDDD4"/>
<path d="M124.565 105.51V107.787H116.855V106.008L120.513 101.254L120.477 101.171H117.474L117.212 98.8942H124.505V100.673L120.883 105.427L120.93 105.51H124.565Z" fill="#EDDDD4"/>
<path d="M133.348 105.51V107.787H125.638V106.008L129.296 101.254L129.26 101.171H126.257L125.995 98.8942H133.288V100.673L129.665 105.427L129.713 105.51H133.348Z" fill="#EDDDD4"/>
<path d="M137.233 106.376L136.911 107.787H133.896L136.208 98.8942H140.629L142.941 107.787H139.926L139.592 106.376H137.233ZM138.496 101.621H138.341L137.757 104.111H139.068L138.496 101.621Z" fill="#EDDDD4"/>
<path d="M143 6.21915e-06V94.8517L0 94.8517L4.16715e-06 0L143 6.21915e-06Z" fill="#C44536"/>
<path d="M135.417 8.6231V87.3069L7.58362 87.3069L7.58363 8.6231L135.417 8.6231Z" fill="#283D3B"/>
<path d="M41.0897 82.983C37.7692 82.983 34.6814 82.103 31.8264 80.343C29.0024 78.614 26.737 76.2983 25.0301 73.3959C23.3544 70.4627 22.5165 67.267 22.5165 63.8088V59.5479C22.5165 59.2083 22.6406 59.0385 22.8889 59.0385H33.5952C33.9056 59.0385 34.0607 59.2083 34.0607 59.5479V63.8088C34.0607 65.8775 34.728 67.6684 36.0624 69.1813C37.3968 70.6634 39.0726 71.4044 41.0897 71.4044C43.3241 71.4044 45.0774 70.6325 46.3498 69.0887C47.6222 67.514 48.2583 65.754 48.2583 63.8088V61.2615C48.2583 59.2855 47.6377 57.5101 46.3964 55.9354C45.155 54.3607 43.5879 53.5734 41.6949 53.5734H37.9709C37.6606 53.5734 37.5054 53.4036 37.5054 53.0639L37.5985 42.4579C37.5985 42.2109 37.7226 42.0874 37.9709 42.0874H41.6949C43.4017 42.0874 44.9223 41.4236 46.2567 40.0959C47.5911 38.7682 48.2583 37.0237 48.2583 34.8624V33.5656C48.2583 31.5278 47.5756 29.7987 46.2102 28.3784C44.8447 26.9581 43.1379 26.2479 41.0897 26.2479C39.1346 26.2479 37.4744 26.9581 36.1089 28.3784C34.7435 29.7987 34.0607 31.5278 34.0607 33.5656V38.1044C34.0607 38.4132 33.9366 38.5675 33.6883 38.5675H22.982C22.7337 38.5675 22.6096 38.4132 22.6096 38.1044V33.0561C22.6096 29.598 23.494 26.5104 25.2629 23.7933C27.0007 21.0762 29.2817 18.9148 32.1057 17.3093C34.9297 15.6728 37.9243 14.8546 41.0897 14.8546C44.5344 14.8546 47.6687 15.6883 50.4927 17.3556C53.3167 19.0538 55.5511 21.2923 57.1958 24.0712C58.8716 26.85 59.7095 29.9068 59.7095 33.2414V34.7698C59.7095 37.5486 59.244 39.957 58.313 41.9948C57.382 44.0018 56.0942 45.9315 54.4494 47.7841C56.0942 49.6675 57.3975 51.7362 58.3596 53.9902C59.3216 56.2442 59.8026 58.5599 59.8026 60.9374V63.8088C59.8026 67.3287 58.9647 70.5553 57.2889 73.4885C55.5821 76.3909 53.3167 78.7066 50.4927 80.4357C47.6687 82.1339 44.5344 82.983 41.0897 82.983Z" fill="#EDDDD4"/>
<path d="M77.0036 81.9177H66.2041C65.8938 81.9177 65.7386 81.7633 65.7386 81.4546L65.8317 16.2904C65.8317 16.0434 65.9558 15.9199 66.2041 15.9199H76.9105C77.1587 15.9199 77.2829 16.0434 77.2829 16.2904L77.376 81.4546C77.376 81.7633 77.2518 81.9177 77.0036 81.9177Z" fill="#EDDDD4"/>
<path d="M102.939 15.1207C106.299 15.1207 109.405 15.9737 112.258 17.6797C115.047 19.4488 117.298 21.7866 119.009 24.6931C120.657 27.5995 121.481 30.7903 121.481 34.2654V38.5303C121.481 38.8462 121.355 39.0042 121.101 39.0042H110.451C110.134 39.0042 109.976 38.8462 109.976 38.5303L109.976 34.2654C109.976 32.1803 109.31 30.3796 107.979 28.8632C106.648 27.41 104.968 26.6833 102.939 26.6833C100.721 26.6833 98.9774 27.4416 97.7095 28.958C96.4417 30.5376 95.8078 32.3067 95.8078 34.2654V36.8243C95.8078 38.783 96.4417 40.5522 97.7095 42.1318C98.914 43.7113 100.467 44.5011 102.369 44.5011H106.077C106.394 44.5011 106.553 44.6591 106.553 44.975L106.458 55.5899C106.458 55.8426 106.331 55.969 106.077 55.969H102.369C100.657 55.969 99.1358 56.6324 97.8046 57.9593C96.4734 59.2861 95.8078 61.0237 95.8078 63.1719V64.4988C95.8078 66.5207 96.5051 68.2266 97.8997 69.6167C99.2309 71.0699 100.911 71.7965 102.939 71.7965C104.905 71.7965 106.584 71.0699 107.979 69.6167C109.31 68.2266 109.976 66.5207 109.976 64.4988V59.9496C109.976 59.6336 110.103 59.4757 110.356 59.4757H121.006C121.26 59.4757 121.386 59.6336 121.386 59.9496V64.9727C121.386 68.4478 120.531 71.5438 118.819 74.2607C117.044 76.9776 114.762 79.1258 111.973 80.7054C109.12 82.3482 106.109 83.1696 102.939 83.1696C99.5162 83.1696 96.41 82.3166 93.6208 80.6106C90.7681 78.9678 88.5177 76.7564 86.8696 73.9763C85.2214 71.1963 84.3973 68.1318 84.3973 64.7831V63.2667C84.3973 60.4866 84.8727 58.0856 85.8236 56.0638C86.7111 54.0419 87.9789 52.1148 89.6271 50.2825C87.9789 48.3869 86.6794 46.3019 85.7285 44.0273C84.7776 41.8158 84.3022 39.5096 84.3022 37.1087V34.2654C84.3022 30.7271 85.158 27.5047 86.8695 24.5983C88.5177 21.6918 90.7681 19.3856 93.6208 17.6797C96.41 15.9737 99.5162 15.1207 102.939 15.1207Z" fill="#EDDDD4"/>
</svg>

<svg xmlns="http://www.w3.org/2000/svg" fill="none" viewBox="0 0 143 108"><path fill="#EDDDD4" d="M4.941 107.787H.937v-8.893h4.004q1.204 0 2.014.25.81.236 1.299.77t.691 1.375q.215.842.215 2.04t-.215 2.051q-.202.841-.691 1.375t-1.299.783-2.014.249m.048-6.616H3.797v4.339H4.99q.596 0 .846-.13.262-.143.262-.629v-2.822q0-.486-.262-.616-.25-.142-.846-.142m11.253 1.197v2.063h-2.86v1.079h3.504v2.277h-6.364v-8.893h6.292l-.357 2.277h-3.075v1.197zm8.577-3.474v2.277h-2.073v6.616h-2.86v-6.616h-2.074v-2.277zm7.384 5.928 1.549 2.965h-3.146l-1.168-2.644h-.62v2.644h-2.86v-8.893h4.505q3.074 0 3.074 3.118 0 2.135-1.334 2.81m-2.73-3.651h-.655v1.778h.656q.525 0 .75-.107.24-.106.239-.486v-.592q0-.38-.238-.487-.227-.106-.751-.106m5.211 2.181q0-1.22.202-2.098.215-.89.703-1.459.501-.57 1.311-.841.81-.273 2.002-.273 1.204 0 2.002.273.81.272 1.3.841.5.57.702 1.459.215.877.215 2.098 0 1.162-.19 2.04-.192.865-.68 1.446-.476.581-1.3.877-.81.285-2.049.285t-2.061-.285q-.81-.296-1.3-.877-.476-.58-.667-1.446-.19-.877-.19-2.04m3.074-1.482v3.699h1.192q.596 0 .846-.13.262-.142.262-.628v-3.7h-1.203q-.573 0-.835.143-.262.13-.262.616m9.58 5.917h-2.86v-8.893h2.86zm8.155-8.893v2.277H53.42v6.616h-2.86v-6.616h-2.073v-2.277zm4.712 8.738.405-2.347q1.31.32 2.371.32.537 0 .942-.012.417-.023.739-.071v-.711l-1.287-.107q-.87-.083-1.454-.285t-.942-.545a2.1 2.1 0 0 1-.5-.842 4.2 4.2 0 0 1-.143-1.162q0-.912.19-1.517.191-.617.608-.984.417-.38 1.073-.534.667-.154 1.62-.154 1.896 0 3.432.356l-.357 2.276q-1.334-.213-2.133-.213t-1.359.071v.699l1.025.095q.942.095 1.573.32.632.213 1.013.569.393.356.548.842.168.486.167 1.115 0 .9-.238 1.517-.24.616-.572.937-.275.26-.68.415-.405.143-.858.213a7 7 0 0 1-.917.083 15.7 15.7 0 0 1-2.61-.071 15 15 0 0 1-1.656-.273m15.329-8.738v2.277h-2.073v6.616h-2.86v-6.616h-2.074v-2.277zm.424 0h3.158l.787 3.13h.107l.799-3.13h3.157l-2.574 6.474v2.419h-2.86v-2.419zm14.8 6.616v2.277h-5.72v-8.893h2.86v6.616zm6.862-3.142v2.063h-2.86v1.079h3.504v2.277h-6.364v-8.893h6.292l-.357 2.277h-3.075v1.197zm10.863 3.273h-1.859v2.146h-2.86v-8.893h4.504q3.075 0 3.075 3.284 0 .724-.143 1.352a2.95 2.95 0 0 1-.489 1.103 2.36 2.36 0 0 1-.882.735q-.536.273-1.346.273m-1.204-4.47h-.655v2.193h.655q.525 0 .751-.107.238-.106.238-.498v-.995q0-.38-.238-.487-.226-.106-.751-.106m8.14 6.616h-2.86v-8.893h2.86zm9.144-2.277v2.277h-7.71v-1.779l3.658-4.754-.036-.083h-3.003l-.262-2.277h7.293v1.779l-3.622 4.754.047.083zm8.783 0v2.277h-7.71v-1.779l3.658-4.754-.036-.083h-3.003l-.262-2.277h7.293v1.779l-3.623 4.754.048.083zm3.885.866-.322 1.411h-3.015l2.312-8.893h4.421l2.312 8.893h-3.015l-.334-1.411zm1.263-4.755h-.155l-.584 2.49h1.311z"/><path fill="#C44536" d="M143 0v94.852H0V0z"/><path fill="#283D3B" d="M135.417 8.623v78.684H7.584V8.623z"/><path fill="#EDDDD4" d="M41.09 82.983q-4.98 0-9.264-2.64-4.236-2.594-6.796-6.947-2.514-4.4-2.514-9.587v-4.261q0-.51.373-.51h10.706q.465 0 .466.51v4.26q0 3.104 2.001 5.373 2.002 2.223 5.028 2.223 3.35 0 5.26-2.315 1.908-2.362 1.908-5.28v-2.547q0-2.965-1.862-5.327-1.861-2.361-4.701-2.362H37.97q-.465 0-.466-.51l.093-10.605q0-.37.373-.37h3.724q2.56 0 4.562-1.992 2.001-1.992 2.001-5.234v-1.296q0-3.057-2.048-5.188t-5.12-2.13q-2.933 0-4.981 2.13t-2.048 5.188v4.538q0 .465-.373.464H22.982q-.372 0-.372-.464v-5.048q0-5.187 2.653-9.263a19.35 19.35 0 0 1 6.843-6.484q4.236-2.454 8.984-2.454 5.167 0 9.403 2.5 4.236 2.548 6.703 6.716 2.514 4.169 2.514 9.17v1.529q0 4.168-1.397 7.225-1.397 3.01-3.864 5.79a23.3 23.3 0 0 1 3.91 6.205q1.444 3.381 1.444 6.947v2.872q0 5.28-2.514 9.68-2.56 4.353-6.796 6.947-4.237 2.547-9.403 2.547m35.914-1.065h-10.8q-.465 0-.465-.463l.093-65.165q0-.37.372-.37h10.707q.372 0 .372.37l.093 65.165q0 .463-.372.463m25.935-66.798q5.04 0 9.319 2.56 4.184 2.654 6.751 7.013 2.472 4.36 2.472 9.572v4.265q0 .474-.38.474h-10.65q-.475 0-.475-.474v-4.265q0-3.127-1.997-5.402-1.997-2.18-5.04-2.18-3.328 0-5.23 2.275-1.9 2.37-1.901 5.307v2.56q0 2.937 1.901 5.307 1.807 2.37 4.66 2.37h3.708q.476 0 .476.473l-.095 10.615q0 .38-.381.379h-3.708q-2.568 0-4.564 1.99-1.997 1.99-1.997 5.213v1.327q0 3.033 2.092 5.118 1.996 2.18 5.039 2.18 2.948 0 5.04-2.18 1.997-2.085 1.997-5.118v-4.55q0-.473.38-.473h10.65q.38 0 .38.474v5.023q0 5.212-2.567 9.288-2.663 4.075-6.846 6.444-4.28 2.465-9.034 2.465-5.134 0-9.318-2.56-4.28-2.463-6.751-6.634-2.473-4.17-2.473-9.193v-1.516q0-4.17 1.427-7.203 1.33-3.034 3.803-5.782a23 23 0 0 1-3.898-6.255 17.3 17.3 0 0 1-1.427-6.918v-2.844q0-5.307 2.567-9.667 2.474-4.359 6.752-6.918 4.183-2.56 9.318-2.56"/></svg>
